src/apps/scalable/aegisub.svg

<?xml version="1.0" encoding="UTF-8"?>
<svg id="SimpleNote" width="64" height="64" enable-background="new 0 0 1024 1024" image-rendering="optimizeSpeed" version="1.1" viewBox="0 0 64 64" xmlns="http://www.w3.org/2000/svg" xmlns:cc="http://creativecommons.org/ns#" xmlns:dc="http://purl.org/dc/elements/1.1/" xmlns:rdf="http://www.w3.org/1999/02/22-rdf-syntax-ns#" xmlns:xlink="http://www.w3.org/1999/xlink">
 <metadata>
  <rdf:RDF>
   <cc:Work rdf:about="">
    <dc:format>image/svg+xml</dc:format>
    <dc:type rdf:resource="http://purl.org/dc/dcmitype/StillImage"/>
    <dc:title/>
   </cc:Work>
  </rdf:RDF>
 </metadata>
 <defs>
  <linearGradient id="linearGradient902">
   <stop offset="0"/>
   <stop stop-opacity=".50196" offset="1"/>
  </linearGradient>
  <filter id="c" x="-.036" y="-.036" width="1.072" height="1.072" color-interpolation-filters="sRGB">
   <feGaussianBlur stdDeviation="14.170353"/>
  </filter>
  <linearGradient id="linearGradient884" x1="32" x2="32" y1="62" y2="2" gradientTransform="translate(65.088 .87636)" gradientUnits="userSpaceOnUse">
   <stop stop-color="#ff364e" offset="0"/>
   <stop stop-color="#ff5d1d" offset="1"/>
  </linearGradient>
  <linearGradient id="linearGradient892" x1="39.157" x2="39.157" y1="62" y2="5.3027" gradientUnits="userSpaceOnUse" xlink:href="#linearGradient902"/>
  <linearGradient id="linearGradient894" x1="25.071" x2="25.071" y1="62" y2="5.0625" gradientUnits="userSpaceOnUse" xlink:href="#linearGradient902"/>
  <linearGradient id="linearGradient896" x1="31.99" x2="31.99" y1="62" y2="21.338" gradientUnits="userSpaceOnUse" xlink:href="#linearGradient902"/>
  <filter id="filter926" x="-.047727" y="-.080769" width="1.0955" height="1.1615" color-interpolation-filters="sRGB">
   <feGaussianBlur stdDeviation="0.87499991"/>
  </filter>
  <linearGradient id="linearGradient955" x1="32" x2="32" y1="45" y2="19" gradientUnits="userSpaceOnUse">
   <stop stop-color="#fff" offset="0"/>
   <stop stop-color="#f9dfdf" offset="1"/>
  </linearGradient>
  <linearGradient id="linearGradient1001" x1="32" x2="32" y1="43" y2="21" gradientUnits="userSpaceOnUse">
   <stop stop-color="#196ce8" offset="0"/>
   <stop stop-color="#34c6ef" offset="1"/>
  </linearGradient>
 </defs>
 <path transform="matrix(.063513 0 0 .063513 -.54373 -.49348)" d="m970.43 391.52c-1.1008-4.3532-2.3517-9.0066-3.6527-13.61-1.0007-3.4025-2.0015-6.855-3.1523-10.508-1.6012-5.1538-3.4025-10.508-5.3039-15.862-6.4547-18.263-14.16-36.076-23.167-53.689-3.8028-7.4054-7.9558-14.961-12.309-22.416-20.315-34.525-45.833-67.249-76.406-97.821-72.653-72.653-157.26-116.74-253.84-132.15-16.262-2.6019-32.824-4.4032-50.087-5.3539-9.7071-0.5504-19.865-0.85062-30.122-0.85062-9.3568 0-18.614 0.25018-27.92 0.75055-118.44 6.1045-220.46 51.988-306.07 137.6q-138.35 138.35-138.35 333.99c0 130.45 46.134 241.83 138.35 334.04 56.741 56.691 120.64 95.97 191.24 117.64 36.777 11.258 74.855 17.863 114.83 19.965h0.40029c8.5062 0.45033 16.612 0.70051 24.518 0.70051h3.0022c10.308 0 20.515-0.30022 30.122-0.80058 2.5018-0.15011 4.7535-0.30022 6.9551-0.45033 20.215-1.4511 39.929-4.053 58.743-7.7056 7.9558-1.5511 15.812-3.3024 23.417-5.1538 80.859-20.315 152.26-61.645 214.81-124.19 48.636-48.636 84.462-102.57 107.43-161.92 18.463-47.685 28.671-98.872 30.572-153.61 0.20015-6.0544 0.30022-12.259 0.30022-18.514v-3.0022c-0.20014-40.68-4.9536-79.558-14.31-117.09z" filter="url(#c)" opacity=".25" stroke-width="15.695"/>
 <g transform="matrix(1.2274 0 0 1.2274 -7.2781 -7.2781)" stroke-width="1.2274">
  <path transform="matrix(.8147 0 0 .8147 5.9295 5.9295)" d="m32 2a30 30 0 0 0-30 30 30 30 0 0 0 30 30 30 30 0 0 0 30-30 30 30 0 0 0-30-30z" fill="url(#linearGradient884)"/>
  <path transform="matrix(.8147 0 0 .8147 5.9295 5.9295)" d="m18.844 5.0625a30 30 0 0 0-16.844 26.938 30 30 0 0 0 30 30 30 30 0 0 0 16.143-4.7168l-29.299-52.221z" fill="url(#linearGradient894)" opacity=".1"/>
  <path transform="matrix(.8147 0 0 .8147 5.9295 5.9295)" d="m45.617 5.3027-29.303 52.227a30 30 0 0 0 15.686 4.4707 30 30 0 0 0 30-30 30 30 0 0 0-16.383-26.697z" fill="url(#linearGradient892)" opacity=".1"/>
  <path transform="matrix(.8147 0 0 .8147 5.9295 5.9295)" d="m2.043 33.227a30 30 0 0 0 29.957 28.773 30 30 0 0 0 29.938-28.773h-59.895z" fill="url(#linearGradient896)" opacity=".1"/>
 </g>
 <path d="m32 19c-12.375 0-22 10.111-22 13.237 0 4.0964 9.625 12.763 22 12.763s22-10.111 22-12.763c0-3.1259-9.625-13.237-22-13.237z" filter="url(#filter926)" opacity=".15"/>
 <path d="m32 19c-12.375 0-22 10.111-22 13.237 0 4.0964 9.625 12.763 22 12.763s22-10.111 22-12.763c0-3.1259-9.625-13.237-22-13.237z" fill="url(#linearGradient955)"/>
 <circle cx="32" cy="32" r="11" fill="url(#linearGradient1001)"/>
 <circle cx="32" cy="32" r="6" fill="#3f3f3f"/>
</svg>

<svg width="64" height="64" enable-background="new 0 0 1024 1024" image-rendering="optimizeSpeed" xmlns="http://www.w3.org/2000/svg" xmlns:xlink="http://www.w3.org/1999/xlink"><defs><linearGradient id="a"><stop offset="0"/><stop stop-opacity=".502" offset="1"/></linearGradient><linearGradient id="c" x1="32" x2="32" y1="62" y2="2" gradientTransform="translate(65.088 .876)" gradientUnits="userSpaceOnUse"><stop stop-color="#ff364e" offset="0"/><stop stop-color="#ff5d1d" offset="1"/></linearGradient><linearGradient id="e" x1="39.157" x2="39.157" y1="62" y2="5.303" gradientUnits="userSpaceOnUse" xlink:href="#a"/><linearGradient id="d" x1="25.071" x2="25.071" y1="62" y2="5.063" gradientUnits="userSpaceOnUse" xlink:href="#a"/><linearGradient id="f" x1="31.99" x2="31.99" y1="62" y2="21.338" gradientUnits="userSpaceOnUse" xlink:href="#a"/><linearGradient id="h" x1="32" x2="32" y1="45" y2="19" gradientUnits="userSpaceOnUse"><stop stop-color="#fff" offset="0"/><stop stop-color="#f9dfdf" offset="1"/></linearGradient><linearGradient id="i" x1="32" x2="32" y1="43" y2="21" gradientUnits="userSpaceOnUse"><stop stop-color="#196ce8" offset="0"/><stop stop-color="#34c6ef" offset="1"/></linearGradient><filter id="b" x="-.036" y="-.036" width="1.072" height="1.072" color-interpolation-filters="sRGB"><feGaussianBlur stdDeviation="14.17"/></filter><filter id="g" x="-.048" y="-.081" width="1.095" height="1.161" color-interpolation-filters="sRGB"><feGaussianBlur stdDeviation=".875"/></filter></defs><path transform="matrix(.06351 0 0 .06351 -.544 -.493)" d="M970.43 391.52a514.995 514.995 0 0 0-3.653-13.61c-1-3.403-2.001-6.855-3.152-10.508a421.479 421.479 0 0 0-5.304-15.862c-6.455-18.263-14.16-36.076-23.167-53.689a475.424 475.424 0 0 0-12.309-22.416c-20.315-34.525-45.833-67.249-76.406-97.821-72.653-72.653-157.26-116.74-253.84-132.15a484.051 484.051 0 0 0-50.087-5.354c-9.707-.55-19.865-.85-30.122-.85-9.357 0-18.614.25-27.92.75-118.44 6.105-220.46 51.988-306.07 137.6Q40.05 315.96 40.05 511.6c0 130.45 46.134 241.83 138.35 334.04 56.741 56.691 120.64 95.97 191.24 117.64 36.777 11.258 74.855 17.863 114.83 19.965h.4c8.507.45 16.612.7 24.518.7h3.003a583.3 583.3 0 0 0 30.122-.8c2.501-.15 4.753-.3 6.955-.45 20.215-1.451 39.929-4.053 58.743-7.706a519.823 519.823 0 0 0 23.417-5.154c80.859-20.315 152.26-61.645 214.81-124.19 48.636-48.636 84.462-102.57 107.43-161.92 18.463-47.685 28.67-98.872 30.572-153.61.2-6.054.3-12.259.3-18.514V508.6c-.2-40.68-4.954-79.558-14.31-117.09z" filter="url(#b)" opacity=".25"/><g stroke-width="1.227"><path d="M32 2A30 30 0 0 0 2 32a30 30 0 0 0 30 30 30 30 0 0 0 30-30A30 30 0 0 0 32 2z" fill="url(#c)"/><path d="M18.844 5.063A30 30 0 0 0 2 32a30 30 0 0 0 30 30 30 30 0 0 0 16.143-4.717L18.844 5.063z" fill="url(#d)" opacity=".1"/><path d="M45.617 5.303 16.314 57.53A30 30 0 0 0 32 62a30 30 0 0 0 30-30A30 30 0 0 0 45.617 5.303z" fill="url(#e)" opacity=".1"/><path d="M2.043 33.227A30 30 0 0 0 32 62a30 30 0 0 0 29.938-28.773H2.043z" fill="url(#f)" opacity=".1"/></g><path d="M32 19c-12.375 0-22 10.111-22 13.237C10 36.333 19.625 45 32 45s22-10.111 22-12.763C54 29.111 44.375 19 32 19z" filter="url(#g)" opacity=".15"/><path d="M32 19c-12.375 0-22 10.111-22 13.237C10 36.333 19.625 45 32 45s22-10.111 22-12.763C54 29.111 44.375 19 32 19z" fill="url(#h)"/><circle cx="32" cy="32" r="11" fill="url(#i)"/><circle cx="32" cy="32" r="6" fill="#3f3f3f"/></svg>
